X:10
T:Indigo Bunting
R:reel
C:Paul S. Cranford
O:Cape Breton Island
S:http://www.cranfordpub.com
D:currently unrecorded
B:currently unpublished in book form
Z:psc, (re-formatted,updated 9/17/04)
N:
H:                                                        copyrights Cranford Publications, SOCAN
L:1/8
Q:333
M:C|
K:A
A,2 EA, CEAc|eaed cAAc|d2 bd c'dbd|agec dBBc|
AGEC DB,CB,|A,2 CE FDEc|dBcb afed|1cABc A3 z:|2cABc A2||
|:cd|edcA dcBG|AGEC DB,CB,|A,CEG Acec|df ce Bcdf|
edcA dcBG|AGEC DB,CB,|A,CEA ceGB|1A2 c2 A2:|2A2 c2 A3 z|]
